X:331
T: GEN ALMA GEH I AUFI
N: E1483A
O: Europa, Mitteleuropa, Deutschland
R: Staende -, Hirten -, Alpen - Lied
M: 2/4
L: 1/16
K: G
B2 | d3Bd3B | G3BG2z
B | A3cF3A | G4z2
B2 | d3Bd3B | G3BG2z
B | A3cF3A | G4z2
E2 | E3EE3E | c3cc2z
A | A2A2A2A2 | d4z2
d2 | g3dg3d | B3dG3
B | A3cF3A | G4z2

@@@ Tune index: 5015
